svg/color/agu.svg

<?xml version="1.0" encoding="UTF-8" ?>
<!DOCTYPE svg PUBLIC "-//W3C//DTD SVG 1.1//EN" "http://www.w3.org/Graphics/SVG/1.1/DTD/svg11.dtd">
<svg width="250pt" height="250pt" viewBox="0 0 250 250" version="1.1" xmlns="http://www.w3.org/2000/svg">
<g id="#ffffffff">
<path fill="#ffffff" opacity="1.00" d=" M 0.00 0.00 L 118.66 0.00 C 112.72 0.58 106.76 1.15 100.90 2.34 C 94.68 3.56 88.55 5.27 82.58 7.41 C 71.40 11.45 60.80 17.08 51.20 24.10 C 39.22 32.86 28.83 43.77 20.64 56.14 C 30.66 60.18 41.31 62.95 52.16 63.20 C 62.37 63.76 72.36 61.14 82.28 59.13 C 88.60 57.89 94.88 56.48 101.20 55.26 C 106.21 54.25 111.21 53.15 116.22 52.18 C 122.74 51.44 124.94 44.24 129.39 40.40 C 134.99 34.47 142.90 30.58 151.18 31.06 C 153.88 31.51 157.03 31.91 158.86 34.16 C 160.70 37.51 159.29 41.53 157.81 44.74 C 153.53 53.56 148.84 62.16 144.44 70.92 C 148.63 67.06 152.74 63.09 156.42 58.73 C 165.00 61.92 173.00 66.47 180.61 71.52 C 187.05 75.56 192.69 80.72 198.49 85.61 C 203.93 90.53 208.41 96.38 213.63 101.52 C 217.15 104.90 221.30 108.23 222.70 113.12 C 223.70 116.77 220.95 119.90 218.48 122.19 C 212.10 127.06 204.05 129.90 195.98 128.75 C 188.30 128.03 180.61 127.43 172.92 126.76 C 163.57 125.95 154.24 124.94 144.90 124.00 C 135.95 123.13 126.98 121.61 117.96 122.22 C 113.90 122.63 109.81 122.89 105.81 123.73 C 99.83 124.94 93.92 126.45 88.14 128.40 C 77.15 132.18 65.80 135.24 54.12 135.68 C 64.77 137.07 75.52 135.52 86.05 133.93 C 86.58 134.18 87.64 134.69 88.17 134.94 C 93.56 138.06 99.51 139.93 105.27 142.21 C 109.27 143.78 113.27 145.36 117.30 146.86 C 124.49 149.42 131.90 153.38 135.48 160.47 C 138.87 167.54 139.07 175.86 137.27 183.39 C 135.71 186.84 130.73 185.51 128.42 183.60 C 122.86 178.11 122.12 169.51 123.88 162.24 C 121.90 162.00 119.92 161.77 117.94 161.56 C 110.60 160.79 103.27 159.99 95.94 159.24 C 87.31 158.32 78.67 157.46 70.04 156.57 C 61.58 156.19 52.17 152.61 44.29 157.21 C 39.63 161.78 37.37 168.06 35.06 174.02 C 31.77 183.40 29.94 194.35 34.41 203.65 C 36.22 207.78 40.85 209.20 44.98 209.67 C 49.74 210.15 54.71 210.04 59.10 212.22 C 58.10 217.51 55.50 222.93 50.62 225.64 C 56.61 229.71 62.69 233.67 69.20 236.86 C 77.64 241.08 86.56 244.31 95.73 246.53 C 102.90 248.32 110.26 249.20 117.61 249.92 L 118.40 250.00 L 0.00 250.00 L 0.00 0.00 M 163.82 75.79 C 161.35 77.19 160.22 79.95 160.21 82.69 C 165.33 89.64 174.63 89.65 182.35 90.91 C 181.98 86.88 181.49 82.54 178.73 79.35 C 175.41 74.88 168.79 73.16 163.82 75.79 Z" />
<path fill="#ffffff" opacity="1.00" d=" M 130.62 0.00 L 250.00 0.00 L 250.00 118.71 C 248.89 103.09 245.40 87.57 238.80 73.33 C 232.99 60.33 224.80 48.43 214.93 38.18 C 210.39 33.43 205.42 29.10 200.18 25.14 C 194.28 20.65 187.93 16.77 181.33 13.40 C 171.73 8.56 161.50 4.97 150.99 2.72 C 144.28 1.27 137.45 0.53 130.62 0.00 Z" />
<path fill="#ffffff" opacity="1.00" d=" M 220.30 205.86 C 238.05 185.22 248.29 158.62 250.00 131.52 L 250.00 250.00 L 129.71 250.00 C 134.78 249.69 139.85 249.23 144.86 248.42 C 154.59 246.84 164.13 244.14 173.21 240.33 C 181.38 236.91 189.19 232.64 196.45 227.57 C 205.28 221.39 213.39 214.14 220.30 205.86 Z" />
</g>
<g id="#63bb7cff">
<path fill="#63bb7c" opacity="1.00" d=" M 118.66 0.00 L 129.66 0.00 C 129.18 13.46 129.47 26.93 129.39 40.40 C 124.94 44.24 122.74 51.44 116.22 52.18 C 111.21 53.15 106.21 54.25 101.20 55.26 C 101.26 44.37 100.77 33.47 101.44 22.59 C 101.27 15.84 102.01 9.05 100.90 2.34 C 106.76 1.15 112.72 0.58 118.66 0.00 Z" />
</g>
<g id="#58b78dff">
<path fill="#58b78d" opacity="1.00" d=" M 129.66 0.00 L 130.62 0.00 C 137.45 0.53 144.28 1.27 150.99 2.72 C 151.43 12.16 151.08 21.61 151.18 31.06 C 142.90 30.58 134.99 34.47 129.39 40.40 C 129.47 26.93 129.18 13.46 129.66 0.00 Z" />
</g>
<g id="#6dbe6dff">
<path fill="#6dbe6d" opacity="1.00" d=" M 82.58 7.41 C 88.55 5.27 94.68 3.56 100.90 2.34 C 102.01 9.05 101.27 15.84 101.44 22.59 C 100.77 33.47 101.26 44.37 101.20 55.26 C 94.88 56.48 88.60 57.89 82.28 59.13 C 83.52 41.92 82.45 24.65 82.58 7.41 Z" />
<path fill="#6dbe6d" opacity="1.00" d=" M 172.92 126.76 C 180.61 127.43 188.30 128.03 195.98 128.75 C 196.28 144.84 195.65 160.93 196.06 177.02 C 196.28 187.69 195.81 198.36 196.08 209.03 C 196.09 215.21 195.65 221.41 196.45 227.57 C 189.19 232.64 181.38 236.91 173.21 240.33 C 172.57 231.22 173.00 222.09 172.86 212.96 C 172.97 184.23 172.78 155.49 172.92 126.76 Z" />
</g>
<g id="#4cb4a0ff">
<path fill="#4cb4a0" opacity="1.00" d=" M 150.99 2.72 C 161.50 4.97 171.73 8.56 181.33 13.40 C 180.18 32.74 181.49 52.16 180.61 71.52 C 173.00 66.47 165.00 61.92 156.42 58.73 C 152.74 63.09 148.63 67.06 144.44 70.92 C 148.84 62.16 153.53 53.56 157.81 44.74 C 159.29 41.53 160.70 37.51 158.86 34.16 C 157.03 31.91 153.88 31.51 151.18 31.06 C 151.08 21.61 151.43 12.16 150.99 2.72 Z" />
</g>
<g id="#78c05eff">
<path fill="#78c05e" opacity="1.00" d=" M 51.20 24.10 C 60.80 17.08 71.40 11.45 82.58 7.41 C 82.45 24.65 83.52 41.92 82.28 59.13 C 72.36 61.14 62.37 63.76 52.16 63.20 C 53.69 59.79 52.71 56.09 52.92 52.51 C 53.23 44.76 52.77 37.00 53.13 29.25 C 53.36 27.29 52.17 25.67 51.20 24.10 Z" />
</g>
<g id="#42b1aeff">
<path fill="#42b1ae" opacity="1.00" d=" M 181.33 13.40 C 187.93 16.77 194.28 20.65 200.18 25.14 C 199.34 27.99 199.03 30.97 199.23 33.94 C 199.58 43.98 198.75 54.02 198.94 64.07 C 198.81 71.25 199.40 78.46 198.49 85.61 C 192.69 80.72 187.05 75.56 180.61 71.52 C 181.49 52.16 180.18 32.74 181.33 13.40 Z" />
</g>
<g id="#84c34dff">
<path fill="#84c34d" opacity="1.00" d=" M 20.64 56.14 C 28.83 43.77 39.22 32.86 51.20 24.10 C 52.17 25.67 53.36 27.29 53.13 29.25 C 52.77 37.00 53.23 44.76 52.92 52.51 C 52.71 56.09 53.69 59.79 52.16 63.20 C 41.31 62.95 30.66 60.18 20.64 56.14 Z" />
</g>
<g id="#3aafb9ff">
<path fill="#3aafb9" opacity="1.00" d=" M 200.18 25.14 C 205.42 29.10 210.39 33.43 214.93 38.18 C 213.09 45.31 214.50 52.70 214.15 59.96 C 213.82 73.81 214.66 87.69 213.63 101.52 C 208.41 96.38 203.93 90.53 198.49 85.61 C 199.40 78.46 198.81 71.25 198.94 64.07 C 198.75 54.02 199.58 43.98 199.23 33.94 C 199.03 30.97 199.34 27.99 200.18 25.14 Z" />
</g>
<g id="#30adc7ff">
<path fill="#30adc7" opacity="1.00" d=" M 214.15 59.96 C 214.50 52.70 213.09 45.31 214.93 38.18 C 224.80 48.43 232.99 60.33 238.80 73.33 C 236.45 76.23 237.51 80.05 237.40 83.45 C 237.39 95.91 237.14 108.37 237.31 120.83 C 241.00 120.91 244.68 121.31 248.34 121.87 C 240.33 122.22 232.31 121.70 224.30 122.09 C 222.36 122.16 220.42 122.18 218.48 122.19 C 220.95 119.90 223.70 116.77 222.70 113.12 C 221.30 108.23 217.15 104.90 213.63 101.52 C 214.66 87.69 213.82 73.81 214.15 59.96 Z" />
</g>
<g id="#26abd2ff">
<path fill="#26abd2" opacity="1.00" d=" M 237.40 83.45 C 237.51 80.05 236.45 76.23 238.80 73.33 C 245.40 87.57 248.89 103.09 250.00 118.71 L 250.00 122.00 C 249.59 121.97 248.76 121.90 248.34 121.87 C 244.68 121.31 241.00 120.91 237.31 120.83 C 237.14 108.37 237.39 95.91 237.40 83.45 Z" />
</g>
<g id="#4cb3a2ff">
<path fill="#4cb3a2" opacity="1.00" d=" M 163.82 75.79 C 168.79 73.16 175.41 74.88 178.73 79.35 C 181.49 82.54 181.98 86.88 182.35 90.91 C 174.63 89.65 165.33 89.64 160.21 82.69 C 160.22 79.95 161.35 77.19 163.82 75.79 Z" />
</g>
<g id="#57b890ff">
<path fill="#57b890" opacity="1.00" d=" M 117.96 122.22 C 126.98 121.61 135.95 123.13 144.90 124.00 C 144.41 145.42 144.85 166.86 144.68 188.29 C 145.37 208.32 145.19 228.38 144.86 248.42 C 139.85 249.23 134.78 249.69 129.71 250.00 L 118.40 250.00 L 117.61 249.92 C 118.49 239.96 117.93 229.96 118.12 219.98 C 117.76 200.51 118.40 181.03 117.94 161.56 C 119.92 161.77 121.90 162.00 123.88 162.24 C 122.12 169.51 122.86 178.11 128.42 183.60 C 130.73 185.51 135.71 186.84 137.27 183.39 C 139.07 175.86 138.87 167.54 135.48 160.47 C 131.90 153.38 124.49 149.42 117.30 146.86 C 118.95 138.76 117.89 130.42 117.96 122.22 Z" />
</g>
<g id="#77c05eff">
<path fill="#77c05e" opacity="1.00" d=" M 195.98 128.75 C 204.05 129.90 212.10 127.06 218.48 122.19 C 220.42 122.18 222.36 122.16 224.30 122.09 C 222.75 122.49 221.22 122.96 219.69 123.42 C 219.43 146.13 219.61 168.85 219.58 191.57 C 219.76 196.33 219.31 201.16 220.30 205.86 C 213.39 214.14 205.28 221.39 196.45 227.57 C 195.65 221.41 196.09 215.21 196.08 209.03 C 195.81 198.36 196.28 187.69 196.06 177.02 C 195.65 160.93 196.28 144.84 195.98 128.75 Z" />
</g>
<g id="#81c34fff">
<path fill="#81c34f" opacity="1.00" d=" M 224.30 122.09 C 232.31 121.70 240.33 122.22 248.34 121.87 C 248.76 121.90 249.59 121.97 250.00 122.00 L 250.00 131.52 C 248.29 158.62 238.05 185.22 220.30 205.86 C 219.31 201.16 219.76 196.33 219.58 191.57 C 219.61 168.85 219.43 146.13 219.69 123.42 C 221.22 122.96 222.75 122.49 224.30 122.09 Z" />
</g>
<g id="#4fb59cff">
<path fill="#4fb59c" opacity="1.00" d=" M 105.81 123.73 C 109.81 122.89 113.90 122.63 117.96 122.22 C 117.89 130.42 118.95 138.76 117.30 146.86 C 113.27 145.36 109.27 143.78 105.27 142.21 C 105.98 136.07 105.11 129.88 105.81 123.73 Z" />
</g>
<g id="#49b3a5ff">
<path fill="#49b3a5" opacity="1.00" d=" M 88.14 128.40 C 93.92 126.45 99.83 124.94 105.81 123.73 C 105.11 129.88 105.98 136.07 105.27 142.21 C 99.51 139.93 93.56 138.06 88.17 134.94 C 88.38 132.76 88.31 130.57 88.14 128.40 Z" />
</g>
<g id="#62bb7eff">
<path fill="#62bb7e" opacity="1.00" d=" M 144.90 124.00 C 154.24 124.94 163.57 125.95 172.92 126.76 C 172.78 155.49 172.97 184.23 172.86 212.96 C 173.00 222.09 172.57 231.22 173.21 240.33 C 164.13 244.14 154.59 246.84 144.86 248.42 C 145.19 228.38 145.37 208.32 144.68 188.29 C 144.85 166.86 144.41 145.42 144.90 124.00 Z" />
</g>
<g id="#43b2b0ff">
<path fill="#43b2b0" opacity="1.00" d=" M 54.12 135.68 C 65.80 135.24 77.15 132.18 88.14 128.40 C 88.31 130.57 88.38 132.76 88.17 134.94 C 87.64 134.69 86.58 134.18 86.05 133.93 C 75.52 135.52 64.77 137.07 54.12 135.68 Z" />
</g>
<g id="#38afbeff">
<path fill="#38afbe" opacity="1.00" d=" M 44.29 157.21 C 52.17 152.61 61.58 156.19 70.04 156.57 C 70.25 181.05 69.93 205.52 70.12 229.99 C 70.16 232.31 69.71 234.60 69.20 236.86 C 62.69 233.67 56.61 229.71 50.62 225.64 C 55.50 222.93 58.10 217.51 59.10 212.22 C 54.71 210.04 49.74 210.15 44.98 209.67 C 45.45 194.77 44.95 179.86 45.24 164.95 C 45.32 162.33 44.88 159.74 44.29 157.21 Z" />
</g>
<g id="#43b2afff">
<path fill="#43b2af" opacity="1.00" d=" M 70.04 156.57 C 78.67 157.46 87.31 158.32 95.94 159.24 C 96.12 181.13 95.78 203.03 95.96 224.92 C 96.14 232.13 95.97 239.33 95.73 246.53 C 86.56 244.31 77.64 241.08 69.20 236.86 C 69.71 234.60 70.16 232.31 70.12 229.99 C 69.93 205.52 70.25 181.05 70.04 156.57 Z" />
</g>
<g id="#2faccbff">
<path fill="#2faccb" opacity="1.00" d=" M 35.06 174.02 C 37.37 168.06 39.63 161.78 44.29 157.21 C 44.88 159.74 45.32 162.33 45.24 164.95 C 44.95 179.86 45.45 194.77 44.98 209.67 C 40.85 209.20 36.22 207.78 34.41 203.65 C 29.94 194.35 31.77 183.40 35.06 174.02 Z" />
</g>
<g id="#4db49fff">
<path fill="#4db49f" opacity="1.00" d=" M 95.94 159.24 C 103.27 159.99 110.60 160.79 117.94 161.56 C 118.40 181.03 117.76 200.51 118.12 219.98 C 117.93 229.96 118.49 239.96 117.61 249.92 C 110.26 249.20 102.90 248.32 95.73 246.53 C 95.97 239.33 96.14 232.13 95.96 224.92 C 95.78 203.03 96.12 181.13 95.94 159.24 Z" />
</g>
</svg>

<?xml version="1.0" encoding="utf-8"?>
<!-- Generator: Adobe Illustrator 26.0.3, SVG Export Plug-In . SVG Version: 6.00 Build 0)  -->
<svg version="1.1" id="Layer_1" xmlns="http://www.w3.org/2000/svg" xmlns:xlink="http://www.w3.org/1999/xlink" x="0px" y="0px"
	 viewBox="0 0 250 250" style="enable-background:new 0 0 250 250;" xml:space="preserve">
<style type="text/css">
	.st0{fill:#FFFFFF;}
	.st1{fill:#63BB7C;}
	.st2{fill:#58B78D;}
	.st3{fill:#6DBE6D;}
	.st4{fill:#4CB4A0;}
	.st5{fill:#78C05E;}
	.st6{fill:#42B1AE;}
	.st7{fill:#84C34D;}
	.st8{fill:#3AAFB9;}
	.st9{fill:#30ADC7;}
	.st10{fill:#26ABD2;}
	.st11{fill:#4CB3A2;}
	.st12{fill:#57B890;}
	.st13{fill:#77C05E;}
	.st14{fill:#81C34F;}
	.st15{fill:#4FB59C;}
	.st16{fill:#49B3A5;}
	.st17{fill:#62BB7E;}
	.st18{fill:#43B2B0;}
	.st19{fill:#38AFBE;}
	.st20{fill:#43B2AF;}
	.st21{fill:#2FACCB;}
	.st22{fill:#4DB49F;}
</style>
<circle class="st0" cx="124" cy="124.5" r="125"/>
<g id="_x23_63bb7cff">
	<path class="st1" d="M118.7,0h11c-0.5,13.5-0.2,26.9-0.3,40.4c-4.4,3.8-6.7,11-13.2,11.8c-5,1-10,2.1-15,3.1
		c0.1-10.9-0.4-21.8,0.2-32.7c-0.2-6.8,0.6-13.5-0.5-20.2C106.8,1.1,112.7,0.6,118.7,0z"/>
</g>
<g id="_x23_58b78dff">
	<path class="st2" d="M129.7,0h1c6.8,0.5,13.7,1.3,20.4,2.7c0.4,9.4,0.1,18.9,0.2,28.3c-8.3-0.5-16.2,3.4-21.8,9.3
		C129.5,26.9,129.2,13.5,129.7,0z"/>
</g>
<g id="_x23_6dbe6dff">
	<path class="st3" d="M82.6,7.4c6-2.1,12.1-3.8,18.3-5.1c1.1,6.7,0.4,13.5,0.5,20.2c-0.7,10.9-0.2,21.8-0.2,32.7
		c-6.3,1.2-12.6,2.6-18.9,3.9C83.5,41.9,82.4,24.6,82.6,7.4z"/>
	<path class="st3" d="M172.9,126.8c7.7,0.7,15.4,1.3,23.1,2c0.3,16.1-0.3,32.2,0.1,48.3c0.2,10.7-0.2,21.3,0,32
		c0,6.2-0.4,12.4,0.4,18.5c-7.3,5.1-15.1,9.3-23.2,12.8c-0.6-9.1-0.2-18.2-0.4-27.4C173,184.2,172.8,155.5,172.9,126.8z"/>
</g>
<g id="_x23_4cb4a0ff">
	<path class="st4" d="M151,2.7c10.5,2.2,20.7,5.8,30.3,10.7c-1.2,19.3,0.2,38.8-0.7,58.1c-7.6-5-15.6-9.6-24.2-12.8
		c-3.7,4.4-7.8,8.3-12,12.2c4.4-8.8,9.1-17.4,13.4-26.2c1.5-3.2,2.9-7.2,1.1-10.6c-1.8-2.2-5-2.6-7.7-3.1
		C151.1,21.6,151.4,12.2,151,2.7z"/>
</g>
<g id="_x23_78c05eff">
	<path class="st5" d="M51.2,24.1c9.6-7,20.2-12.7,31.4-16.7c-0.1,17.2,0.9,34.5-0.3,51.7c-9.9,2-19.9,4.6-30.1,4.1
		c1.5-3.4,0.5-7.1,0.8-10.7c0.3-7.8-0.1-15.5,0.2-23.3C53.4,27.3,52.2,25.7,51.2,24.1z"/>
</g>
<g id="_x23_42b1aeff">
	<path class="st6" d="M181.3,13.4c6.6,3.4,12.9,7.2,18.8,11.7c-0.8,2.9-1.1,5.8-0.9,8.8c0.4,10-0.5,20.1-0.3,30.1
		c-0.1,7.2,0.5,14.4-0.4,21.5c-5.8-4.9-11.4-10.1-17.9-14.1C181.5,52.2,180.2,32.7,181.3,13.4z"/>
</g>
<g id="_x23_84c34dff">
	<path class="st7" d="M20.6,56.1c8.2-12.4,18.6-23.3,30.6-32c1,1.6,2.2,3.2,1.9,5.1c-0.4,7.8,0.1,15.5-0.2,23.3
		c-0.2,3.6,0.8,7.3-0.8,10.7C41.3,63,30.7,60.2,20.6,56.1z"/>
</g>
<g id="_x23_3aafb9ff">
	<path class="st8" d="M200.2,25.1c5.2,4,10.2,8.3,14.8,13c-1.8,7.1-0.4,14.5-0.8,21.8c-0.3,13.8,0.5,27.7-0.5,41.6
		c-5.2-5.1-9.7-11-15.1-15.9c0.9-7.2,0.3-14.4,0.4-21.5c-0.2-10,0.6-20.1,0.3-30.1C199,31,199.3,28,200.2,25.1z"/>
</g>
<g id="_x23_30adc7ff">
	<path class="st9" d="M214.1,60c0.4-7.3-1.1-14.6,0.8-21.8c9.9,10.2,18.1,22.2,23.9,35.2c-2.4,2.9-1.3,6.7-1.4,10.1
		c0,12.5-0.3,24.9-0.1,37.4c3.7,0.1,7.4,0.5,11,1c-8,0.3-16-0.2-24,0.2c-1.9,0.1-3.9,0.1-5.8,0.1c2.5-2.3,5.2-5.4,4.2-9.1
		c-1.4-4.9-5.6-8.2-9.1-11.6C214.7,87.7,213.8,73.8,214.1,60z"/>
</g>
<g id="_x23_26abd2ff">
	<path class="st10" d="M237.4,83.4c0.1-3.4-0.9-7.2,1.4-10.1c6.6,14.2,10.1,29.8,11.2,45.4v3.3c-0.4,0-1.2-0.1-1.7-0.1
		c-3.7-0.6-7.3-1-11-1C237.1,108.4,237.4,95.9,237.4,83.4z"/>
</g>
<g id="_x23_4cb3a2ff">
	<path class="st11" d="M163.8,75.8c5-2.6,11.6-0.9,14.9,3.6c2.8,3.2,3.2,7.5,3.6,11.6c-7.7-1.3-17-1.3-22.1-8.2
		C160.2,79.9,161.4,77.2,163.8,75.8z"/>
</g>
<g id="_x23_57b890ff">
	<path class="st12" d="M118,122.2c9-0.6,18,0.9,26.9,1.8c-0.5,21.4,0,42.9-0.2,64.3c0.7,20,0.5,40.1,0.2,60.1
		c-5,0.8-10.1,1.3-15.1,1.6h-11.3l-0.8-0.1c0.9-10,0.3-20,0.5-29.9c-0.4-19.5,0.3-38.9-0.2-58.4c2,0.2,4,0.4,5.9,0.7
		c-1.8,7.3-1,15.9,4.5,21.4c2.3,1.9,7.3,3.2,8.9-0.2c1.8-7.5,1.6-15.9-1.8-22.9c-3.6-7.1-11-11.1-18.2-13.6
		C118.9,138.8,117.9,130.4,118,122.2z"/>
</g>
<g id="_x23_77c05eff">
	<path class="st13" d="M196,128.8c8.1,1.1,16.1-1.7,22.5-6.6c1.9,0,3.9,0,5.8-0.1c-1.6,0.4-3.1,0.9-4.6,1.3
		c-0.3,22.7-0.1,45.4-0.1,68.2c0.2,4.8-0.3,9.6,0.7,14.3c-6.9,8.3-15,15.5-23.9,21.7c-0.8-6.2-0.4-12.4-0.4-18.5
		c-0.3-10.7,0.2-21.3,0-32C195.6,160.9,196.3,144.8,196,128.8z"/>
</g>
<g id="_x23_81c34fff">
	<path class="st14" d="M224.3,122.1c8-0.4,16,0.1,24-0.2c0.4,0,1.2,0.1,1.7,0.1v9.5c-1.7,27.1-11.9,53.7-29.7,74.3
		c-1-4.7-0.5-9.5-0.7-14.3c0-22.7-0.2-45.4,0.1-68.2C221.2,123,222.8,122.5,224.3,122.1z"/>
</g>
<g id="_x23_4fb59cff">
	<path class="st15" d="M105.8,123.7c4-0.8,8.1-1.1,12.2-1.5c-0.1,8.2,1,16.5-0.7,24.6c-4-1.5-8-3.1-12-4.6
		C106,136.1,105.1,129.9,105.8,123.7z"/>
</g>
<g id="_x23_49b3a5ff">
	<path class="st16" d="M88.1,128.4c5.8-1.9,11.7-3.5,17.7-4.7c-0.7,6.2,0.2,12.3-0.5,18.5c-5.8-2.3-11.7-4.2-17.1-7.3
		C88.4,132.8,88.3,130.6,88.1,128.4z"/>
</g>
<g id="_x23_62bb7eff">
	<path class="st17" d="M144.9,124c9.3,0.9,18.7,1.9,28,2.8c-0.1,28.7,0.1,57.5-0.1,86.2c0.1,9.1-0.3,18.3,0.4,27.4
		c-9.1,3.8-18.6,6.5-28.4,8.1c0.3-20,0.5-40.1-0.2-60.1C144.9,166.9,144.4,145.4,144.9,124z"/>
</g>
<g id="_x23_43b2b0ff">
	<path class="st18" d="M54.1,135.7c11.7-0.4,23-3.5,34-7.3c0.2,2.2,0.2,4.4,0,6.5c-0.5-0.2-1.6-0.8-2.1-1
		C75.5,135.5,64.8,137.1,54.1,135.7z"/>
</g>
<g id="_x23_38afbeff">
	<path class="st19" d="M44.3,157.2c7.9-4.6,17.3-1,25.8-0.6c0.2,24.5-0.1,48.9,0.1,73.4c0,2.3-0.4,4.6-0.9,6.9
		c-6.5-3.2-12.6-7.1-18.6-11.2c4.9-2.7,7.5-8.1,8.5-13.4c-4.4-2.2-9.4-2.1-14.1-2.6c0.5-14.9,0-29.8,0.3-44.7
		C45.3,162.3,44.9,159.7,44.3,157.2z"/>
</g>
<g id="_x23_43b2afff">
	<path class="st20" d="M70,156.6c8.6,0.9,17.3,1.8,25.9,2.7c0.2,21.9-0.2,43.8,0,65.7c0.2,7.2,0,14.4-0.2,21.6
		c-9.2-2.2-18.1-5.4-26.5-9.7c0.5-2.3,1-4.6,0.9-6.9C69.9,205.5,70.2,181.1,70,156.6z"/>
</g>
<g id="_x23_2faccbff">
	<path class="st21" d="M35.1,174c2.3-6,4.6-12.2,9.2-16.8c0.6,2.5,1,5.1,1,7.7c-0.3,14.9,0.2,29.8-0.3,44.7c-4.1-0.5-8.8-1.9-10.6-6
		C29.9,194.4,31.8,183.4,35.1,174z"/>
</g>
<g id="_x23_4db49fff">
	<path class="st22" d="M95.9,159.2c7.3,0.8,14.7,1.5,22,2.3c0.5,19.5-0.2,38.9,0.2,58.4c-0.2,10,0.4,20-0.5,29.9
		c-7.3-0.7-14.7-1.6-21.9-3.4c0.2-7.2,0.4-14.4,0.2-21.6C95.8,203,96.1,181.1,95.9,159.2z"/>
</g>
</svg>
